X:170
%%composerspace -15
%%topspace -50
T:Loweswater
C:Chris Dewhurst
M:3/4
L:1/4
K:G
D |"G"G3/F/G | "D"A D A | "G"B3/A/G | "C"c d e | "G"d3/B/A | "Em"G A B | "Am"A G E | "D"D2 D | 
"G"G3/F/G | "D"A D A | "G"B3/A/G | "C"c d e | "G"d3/B/A | "C"E/2G3/c | "G"B3/c/"D"A | "G"G2 ||
G/G/ | "C"c3/d/e | "G"d B G | "C"A G E | "G"D2 B | "C"c3/d/e | "G"d B A | "A7"G3/F/G | "D"A2 D | 
"G"G3/F/G | "D"A D A | "G"B3/A/G | "C"c d e | "G"d3/B/A | "C"E G c | "G"B3/c/"D"A | "G"G2 |]

